X: 6975
T: Chicago, The
R: reel
M: 4/4
K: Bdorian
defe dBAF|A3F ABde|fdad bdad|fbba fedB|
defe dBAF|A3F ABde|fbba fafe|dBcA B3c:|
defg a2fg|agae cAA2|defg a2ga|fbba bafe|
defg a3f|b3g a3f|=g3e f=gfe|dBcA B3c:|

